client/media/icons/_06_edit2.svg

<?xml version="1.0" encoding="UTF-8" standalone="no"?><!DOCTYPE svg PUBLIC "-//W3C//DTD SVG 1.1//EN" "http://www.w3.org/Graphics/SVG/1.1/DTD/svg11.dtd"><svg width="100%" height="100%" viewBox="0 0 48 48" version="1.1" xmlns="http://www.w3.org/2000/svg" xmlns:xlink="http://www.w3.org/1999/xlink" xml:space="preserve" xmlns:serif="http://www.serif.com/" style="fill-rule:evenodd;clip-rule:evenodd;stroke-linejoin:round;stroke-miterlimit:2;"><path d="M39.531,15.025l-6.6,-6.6l1.9,-1.95c0.667,-0.667 1.484,-1 2.45,-1c0.967,-0 1.834,0.35 2.6,1.05l1.65,1.6c0.767,0.733 1.109,1.583 1.025,2.55c-0.083,0.967 -0.458,1.783 -1.125,2.45l-1.9,1.9Zm-2.05,2.05l-25.45,25.45l-6.6,0l0,-6.6l25.4,-25.4l6.65,6.55Z" style="fill-rule:nonzero;"/></svg>

<?xml version="1.0" encoding="UTF-8" standalone="no"?>
<!DOCTYPE svg PUBLIC "-//W3C//DTD SVG 1.1//EN" "http://www.w3.org/Graphics/SVG/1.1/DTD/svg11.dtd">
<svg width="100%" height="100%" viewBox="0 0 40 40" version="1.1" xmlns="http://www.w3.org/2000/svg" xmlns:xlink="http://www.w3.org/1999/xlink" xml:space="preserve" xmlns:serif="http://www.serif.com/" style="fill-rule:evenodd;clip-rule:evenodd;stroke-linejoin:round;stroke-miterlimit:2;">
    <g transform="matrix(1.07708,0,0,1.07962,-5.84962,-5.91093)">
        <path d="M39.531,15.025L32.931,8.425L34.831,6.475C35.498,5.808 36.315,5.475 37.281,5.475C38.248,5.475 39.115,5.825 39.881,6.525L41.531,8.125C42.298,8.858 42.64,9.708 42.556,10.675C42.473,11.642 42.098,12.458 41.431,13.125L39.531,15.025ZM37.481,17.075L12.031,42.525L5.431,42.525L5.431,35.925L30.831,10.525L37.481,17.075Z" style="fill-rule:nonzero;"/>
    </g>
</svg>
